icons/1_Primary/Datove schranky.svg

<svg width="1024" height="1024" viewBox="0 0 1024 1024" fill="none" xmlns="http://www.w3.org/2000/svg">
<g clip-path="url(#clip0_2_1962)">
<path d="M512 1024C794.77 1024 1024 794.77 1024 512C1024 229.23 794.77 0 512 0C229.23 0 0 229.23 0 512C0 794.77 229.23 1024 512 1024Z" fill="#F8C18C"/>
<path d="M780.36 350.67H570.77C567.7 350.67 565.24 353.84 565.24 357.76V416.52C565.24 420.34 567.69 423.52 570.77 423.52H661.88L465.43 620C464.136 621.323 463.412 623.1 463.412 624.95C463.412 626.8 464.136 628.577 465.43 629.9L507.1 671.51C509.52 673.96 514.47 673.96 516.96 671.51L713.08 475.33V667.56C713.08 670.64 716.25 673.09 720.18 673.09H779C782.83 673.09 786 670.64 786 667.56V356.49C786.013 355.378 785.597 354.304 784.84 353.49C783.61 351.6 782.08 350.62 780.36 350.62V350.67ZM243.6 350.67C242.706 350.732 241.842 351.016 241.086 351.496C240.33 351.976 239.706 352.638 239.27 353.42C238.508 354.275 238.064 355.366 238.01 356.51V667.51C238.01 670.57 241.18 673.08 245.01 673.08H303.88C307.8 673.08 310.88 670.57 310.88 667.51V475.36L427.32 591.77C429.49 593.94 433.47 593.43 436.23 590.67L477.8 549.1C480.5 546.4 480.98 542.45 478.8 540.27L362.15 423.58H518.49C521.56 423.58 524.08 420.42 524.08 416.58V357.72C524.08 353.86 521.56 350.72 518.49 350.72L243.6 350.67Z" fill="white"/>
</g>
<defs>
<clipPath id="clip0_2_1962">
<rect width="1024" height="1024" fill="white"/>
</clipPath>
</defs>
</svg>

<svg xmlns="http://www.w3.org/2000/svg" width="1024" height="1024" fill="none">
   <g clip-path="url(#a)">
      <path fill="#F8C18C" d="M512 1024c282.77 0 512-229.23 512-512S794.77 0 512 0 0 229.23 0 512s229.23 512 512 512Z"/>
      <path fill="#fff" d="M780.36 350.67H570.77c-3.07 0-5.53 3.17-5.53 7.09v58.76c0 3.82 2.45 7 5.53 7h91.11L465.43 620a7.08 7.08 0 0 0 0 9.9l41.67 41.61c2.42 2.45 7.37 2.45 9.86 0l196.12-196.18v192.23c0 3.08 3.17 5.53 7.1 5.53H779c3.83 0 7-2.45 7-5.53V356.49a4.332 4.332 0 0 0-1.16-3c-1.23-1.89-2.76-2.87-4.48-2.87v.05Zm-536.76 0a5.385 5.385 0 0 0-4.33 2.75 4.997 4.997 0 0 0-1.26 3.09v311c0 3.06 3.17 5.57 7 5.57h58.87c3.92 0 7-2.51 7-5.57V475.36l116.44 116.41c2.17 2.17 6.15 1.66 8.91-1.1l41.57-41.57c2.7-2.7 3.18-6.65 1-8.83L362.15 423.58h156.34c3.07 0 5.59-3.16 5.59-7v-58.86c0-3.86-2.52-7-5.59-7l-274.89-.05Z"/>
   </g>
   <defs>
      <clipPath id="a">
         <path fill="#fff" d="M0 0h1024v1024H0z"/>
      </clipPath>
   </defs>
</svg>
